assets/images/icons/unicons/fi-rr-home.svg

<svg xmlns="http://www.w3.org/2000/svg" width="24" height="24" fill="none" viewBox="0 0 24 24">
  <g clip-path="url(#a)">
    <path fill="#374957" d="m23.121 9.069-7.585-7.586a5.008 5.008 0 0 0-7.072 0L.88 9.069a2.978 2.978 0 0 0-.88 2.12v9.818a3 3 0 0 0 3 3h18a3 3 0 0 0 3-3V11.19a2.976 2.976 0 0 0-.879-2.121Zm-8.12 12.938H9v-3.934a3 3 0 0 1 6 0v3.934Zm7-1a1 1 0 0 1-1 1h-4v-3.934a5 5 0 0 0-10 0v3.934H3a1 1 0 0 1-1-1V11.19a1 1 0 0 1 .292-.707L9.878 2.9a3.008 3.008 0 0 1 4.244 0l7.585 7.586c.186.187.291.44.293.704v9.817Z"/>
  </g>
  <defs>
    <clipPath id="a">
      <path fill="#fff" d="M0 0h24v24H0z"/>
    </clipPath>
  </defs>
</svg>

<?xml version="1.0" encoding="UTF-8"?>
<svg xmlns="http://www.w3.org/2000/svg" id="Outline" viewBox="0 0 24 24" width="512" height="512"><path d="M23.121,9.069,15.536,1.483a5.008,5.008,0,0,0-7.072,0L.879,9.069A2.978,2.978,0,0,0,0,11.19v9.817a3,3,0,0,0,3,3H21a3,3,0,0,0,3-3V11.19A2.978,2.978,0,0,0,23.121,9.069ZM15,22.007H9V18.073a3,3,0,0,1,6,0Zm7-1a1,1,0,0,1-1,1H17V18.073a5,5,0,0,0-10,0v3.934H3a1,1,0,0,1-1-1V11.19a1.008,1.008,0,0,1,.293-.707L9.878,2.9a3.008,3.008,0,0,1,4.244,0l7.585,7.586A1.008,1.008,0,0,1,22,11.19Z"/></svg>
